logos/monday-icon.svg

<?xml version="1.0" encoding="UTF-8"?>
<svg width="256px" height="156px" viewBox="0 0 256 156" version="1.1" xmlns="http://www.w3.org/2000/svg" xmlns:xlink="http://www.w3.org/1999/xlink" preserveAspectRatio="xMidYMid">
    <g>
        <path d="M31.8458633,153.488694 C20.3244423,153.513586 9.68073708,147.337265 3.98575204,137.321731 C-1.62714067,127.367831 -1.29055839,115.129325 4.86093879,105.498969 L62.2342919,15.4033556 C68.2125882,5.54538256 79.032489,-0.333585033 90.5563073,0.0146553508 C102.071737,0.290611552 112.546041,6.74705604 117.96667,16.9106216 C123.315033,27.0238906 122.646488,39.1914174 116.240607,48.6847625 L58.9037201,138.780375 C52.9943022,147.988884 42.7873202,153.537154 31.8458633,153.488694 L31.8458633,153.488694 Z" fill="#F62B54"></path>
        <path d="M130.25575,153.488484 C118.683837,153.488484 108.035731,147.301291 102.444261,137.358197 C96.8438154,127.431292 97.1804475,115.223704 103.319447,105.620522 L160.583402,15.7315506 C166.47539,5.73210989 177.327374,-0.284878136 188.929728,0.0146553508 C200.598885,0.269918151 211.174058,6.7973526 216.522421,17.0078646 C221.834319,27.2183766 221.056375,39.4588356 214.456008,48.9278699 L157.204209,138.816842 C151.313487,147.985468 141.153618,153.5168 130.25575,153.488484 Z" fill="#FFCC00"></path>
        <ellipse fill="#00CA72" cx="226.465527" cy="125.324379" rx="29.5375538" ry="28.9176274"></ellipse>
    </g>
</svg>

<svg width="256" height="156" xmlns="http://www.w3.org/2000/svg" preserveAspectRatio="xMidYMid">
	<path d="M31.846 153.489a31.97 31.97 0 0 1-27.86-16.167 30.911 30.911 0 0 1 .875-31.823l57.373-90.096A31.993 31.993 0 0 1 90.556.015a31.932 31.932 0 0 1 27.41 16.896c5.349 10.113 4.68 22.28-1.725 31.774L58.904 138.78a31.982 31.982 0 0 1-27.058 14.709Z" fill="#F62B54"/>
	<path d="M130.256 153.488c-11.572 0-22.22-6.187-27.812-16.13a30.814 30.814 0 0 1 .875-31.737l57.264-89.89A31.944 31.944 0 0 1 188.93.016c11.669.255 22.244 6.782 27.592 16.993a30.813 30.813 0 0 1-2.066 31.92l-57.252 89.889a31.933 31.933 0 0 1-26.948 14.671Z" fill="#FC0"/>
	<ellipse fill="#00CA72" cx="226.466" cy="125.324" rx="29.538" ry="28.918"/>
</svg>
